icon/lg/cirrus-ci.svg

<?xml version="1.0" encoding="UTF-8"?>
<svg viewBox="0 0 256 256" version="1.1" xmlns="http://www.w3.org/2000/svg" xmlns:xlink="http://www.w3.org/1999/xlink" preserveAspectRatio="xMidYMid" height="1em" width="1em">
  <g>
    <circle fill="#000000" cx="128" cy="128" r="128"/>
    <path d="M164.965839,70.5 C177.56037,70.5 187.761439,80.7410736 187.761439,93.3632505 C187.761439,100.283455 184.695137,106.487932 179.849216,110.681368 C184.695137,114.875319 187.761439,121.079796 187.761439,128 C187.761439,134.920763 184.694641,141.125684 179.848041,145.319134 C184.694713,149.511211 187.761439,155.716067 187.761439,162.636749 C187.761439,175.132705 177.763371,185.29494 165.342949,185.496936 L164.965839,185.5 L73.7834364,185.5 C70.7210861,185.5 68.2385606,183.017475 68.2385606,179.955124 C68.2385606,176.95793 70.6165705,174.51615 73.588773,174.413602 L73.7834364,174.410248 L164.965839,174.410248 C171.425932,174.410248 176.671688,169.143921 176.671688,162.636749 C176.671688,156.21634 171.564886,151.003906 165.223585,150.86605 L164.965839,150.86325 L73.7834364,150.86325 C70.7210861,150.86325 68.2385606,148.380725 68.2385606,145.318375 C68.2385606,142.321181 70.6165705,139.879401 73.588773,139.776852 L73.7834364,139.773499 L164.965839,139.773499 C171.425932,139.773499 176.671688,134.507171 176.671688,128 C176.671688,121.579591 171.564886,116.367157 165.223585,116.2293 L164.965839,116.226501 L73.7834364,116.226501 C70.7210861,116.226501 68.2385606,113.743976 68.2385606,110.681625 C68.2385606,107.684431 70.6165705,105.242651 73.588773,105.140103 L73.7834364,105.136749 L164.965839,105.136749 C171.425932,105.136749 176.671688,99.870422 176.671688,93.3632505 C176.671688,86.9428413 171.564886,81.7304076 165.223585,81.5925508 L164.965839,81.5897516 C161.903488,81.5897516 159.420963,79.1072262 159.420963,76.0448758 C159.420963,72.9825255 161.903488,70.5 164.965839,70.5 Z" fill="#FAFAFA"/>
  </g>
</svg>

<svg width="256" height="256" xmlns="http://www.w3.org/2000/svg" preserveAspectRatio="xMidYMid"><circle cx="128" cy="128" r="128"/><path d="M164.966 70.5c12.594 0 22.795 10.241 22.795 22.863 0 6.92-3.066 13.125-7.912 17.318A22.843 22.843 0 0 1 187.761 128c0 6.92-3.066 13.126-7.913 17.32a22.836 22.836 0 0 1 7.913 17.317c0 12.496-9.998 22.658-22.418 22.86l-.377.003H73.783a5.545 5.545 0 0 1-.194-11.086l.194-.004h91.183c6.46 0 11.706-5.266 11.706-11.773 0-6.42-5.107-11.633-11.448-11.77l-.258-.004H73.783a5.545 5.545 0 0 1-.194-11.086l.194-.004h91.183c6.46 0 11.706-5.266 11.706-11.773 0-6.42-5.107-11.633-11.448-11.77l-.258-.003H73.783a5.545 5.545 0 0 1-.194-11.087l.194-.003h91.183c6.46 0 11.706-5.267 11.706-11.774 0-6.42-5.107-11.633-11.448-11.77l-.258-.003a5.545 5.545 0 1 1 0-11.09Z" fill="#FAFAFA"/></svg>
